image/icon_dark.svg

<svg width="100" height="100" viewBox="0 0 100 100" fill="none" xmlns="http://www.w3.org/2000/svg">
<path d="M47.85 49.3299C47.74 53.9799 46.57 57.6199 44.36 60.3299C42.15 63.0399 38.73 64.5499 34.48 64.5499C30.76 64.5499 27.88 63.5499 25.87 61.4699C23.86 59.3899 22.87 56.3499 22.87 52.2499V20.8199H9V53.3099C8.9256 57.4168 9.83058 61.4824 11.64 65.1699C13.2933 68.5066 15.8638 71.3026 19.05 73.2299C22.4197 75.2189 26.2781 76.2267 30.19 76.1399C32.9434 76.2289 35.6903 75.8224 38.3 74.9399C40.187 74.286 41.9123 73.2358 43.36 71.8599C44.4827 70.7826 45.4128 69.521 46.11 68.1299H48.11V81.8499C48.11 84.0433 47.09 85.1399 45.05 85.1399H15.39V97.2099H49.63C51.2459 97.286 52.8602 97.0288 54.3724 96.4542C55.8846 95.8796 57.2624 94.9999 58.42 93.8699C59.5386 92.6757 60.4061 91.2691 60.9712 89.7334C61.5363 88.1978 61.7876 86.5644 61.71 84.9299V49.3299H47.85Z" fill="#F8F9FF"/>
<path d="M91 24.3301C91.0013 27.1613 90.4445 29.9649 89.3613 32.5808C88.2782 35.1966 86.69 37.5732 84.6875 39.5747C82.6851 41.5762 80.3078 43.1633 77.6915 44.2452C75.0751 45.3271 72.2712 45.8827 69.44 45.8801H47.88V24.3301C47.8751 23.1539 47.9721 21.9795 48.17 20.8201C49.0264 15.4581 51.8754 10.6171 56.1472 7.26512C60.419 3.91316 65.7987 2.29736 71.2104 2.74087C76.6222 3.18437 81.6671 5.65449 85.3362 9.65722C89.0052 13.6599 91.028 18.9002 91 24.3301Z" fill="url(#paint0_linear_85_265)"/>
<defs>
<linearGradient id="paint0_linear_85_265" x1="96.4149" y1="2.94716" x2="52.1712" y2="42.6038" gradientUnits="userSpaceOnUse">
<stop stop-color="#9CF1FF"/>
<stop offset="0.4771" stop-color="#58E6FF"/>
<stop offset="1" stop-color="#06BCDD"/>
</linearGradient>
</defs>
</svg>

<svg id="Layer_1" data-name="Layer 1" xmlns="http://www.w3.org/2000/svg" viewBox="0 0 100 100"><defs><style>.cls-1{fill:#f8f9ff;}.cls-2{fill:#2b9bf7;}</style></defs><path class="cls-1" d="M47.85,49.33c-.11,4.65-1.28,8.29-3.49,11s-5.63,4.22-9.88,4.22c-3.72,0-6.6-1-8.61-3.08s-3-5.12-3-9.22V20.82H9V53.31a25.86,25.86,0,0,0,2.64,11.86,19.58,19.58,0,0,0,7.41,8.06,21,21,0,0,0,11.14,2.91,23,23,0,0,0,8.11-1.2,14,14,0,0,0,5.06-3.08,13.64,13.64,0,0,0,2.75-3.73h2V81.85q0,3.29-3.06,3.29H15.39V97.21H49.63a11.79,11.79,0,0,0,8.79-3.34,12.23,12.23,0,0,0,3.29-8.94V49.33Z"/><path class="cls-2" d="M91,24.33A21.54,21.54,0,0,1,69.44,45.88H47.88V24.33a20.36,20.36,0,0,1,.29-3.51A21.55,21.55,0,0,1,91,24.33Z"/></svg>
